img/trade.svg

<svg width="24" height="24" viewBox="0 0 24 24" fill="none" xmlns="http://www.w3.org/2000/svg">
<path d="M11.9942 24C18.5713 24 24 18.5687 24 12C24 5.43133 18.5597 0 11.9826 0C5.41711 0 0 5.43133 0 12C0 18.5687 5.42871 24 11.9942 24ZM6.39149 7.85687L9.38424 4.94391C9.54664 4.78143 9.76704 4.67698 9.97583 4.67698C10.463 4.67698 10.7994 5.01354 10.7994 5.48936C10.7994 5.72147 10.7182 5.93037 10.5558 6.08124L9.31464 7.2882L8.90865 7.64797L9.50024 7.63636H17.0169C17.4809 7.63636 17.8405 7.99613 17.8405 8.47195C17.8405 8.94778 17.4809 9.29594 17.0169 9.29594H9.48864L8.90865 9.27273L9.31464 9.65571L10.5558 10.8511C10.7182 11.0135 10.7994 11.2224 10.7994 11.4429C10.7994 11.9188 10.463 12.2553 9.97583 12.2553C9.77864 12.2553 9.55824 12.1625 9.38424 12.0116L6.39149 9.08704C6.0551 8.75048 6.0551 8.18182 6.39149 7.85687ZM17.5737 16.1663L14.581 19.1025C14.407 19.2534 14.1866 19.3578 13.9778 19.3578C13.5138 19.3578 13.1658 19.0097 13.1658 18.5338C13.1658 18.3133 13.2586 18.1161 13.421 17.9536L14.6622 16.735L15.0681 16.3868L14.4534 16.3985H6.94828C6.48429 16.3985 6.1363 16.0387 6.1363 15.5629C6.1363 15.0754 6.48429 14.7273 6.94828 14.7273H14.465L15.0681 14.7505L14.6622 14.3791L13.3978 13.1721C13.247 13.0097 13.1658 12.8124 13.1658 12.5919C13.1658 12.1161 13.5022 11.7795 13.9778 11.7795C14.1982 11.7795 14.4186 11.8839 14.581 12.0232L17.5737 14.9594C17.9101 15.2959 17.9217 15.8182 17.5737 16.1663Z" fill="black"/>
</svg>

<svg width="24" height="24" fill="none" xmlns="http://www.w3.org/2000/svg"><path d="M11.994 24C18.571 24 24 18.569 24 12S18.56 0 11.983 0C5.417 0 0 5.431 0 12s5.429 12 11.994 12zM6.391 7.857l2.993-2.913a.87.87 0 0 1 .592-.267c.487 0 .823.337.823.812a.788.788 0 0 1-.243.592L9.315 7.288l-.406.36.591-.012h7.517c.464 0 .823.36.823.836s-.36.824-.823.824H9.489l-.58-.023.406.383 1.24 1.195a.825.825 0 0 1 .244.592c0 .476-.336.812-.823.812a.946.946 0 0 1-.592-.243L6.391 9.087c-.336-.337-.336-.905 0-1.23zm11.183 8.31-2.993 2.935c-.174.151-.394.256-.603.256-.464 0-.812-.348-.812-.824a.81.81 0 0 1 .255-.58l1.241-1.219.406-.348-.615.011H6.948c-.464 0-.812-.36-.812-.835 0-.488.348-.836.812-.836h7.517l.603.024-.406-.372-1.264-1.207a.836.836 0 0 1-.232-.58c0-.476.336-.813.812-.813.22 0 .44.105.603.244l2.993 2.936a.838.838 0 0 1 0 1.207z" fill="#000"/></svg>
